Catalina-light/actions/16/media-playlist-repeat-song-rtl-symbolic.svg

<svg version="1.1" viewBox="0 0 16 16" xmlns="http://www.w3.org/2000/svg">
<defs>
<style id="current-color-scheme" type="text/css">.ColorScheme-Text {
        color:#363636;
      }</style>
</defs>
<path d="m8 6.2-1.2 0.6v0.6h0.9v2.4h0.9v-3.6h-0.6z" color="#363636" fill="#363636"/>
<path d="m5 8.6v2.4h6v-1.8l2.4 2.4-2.4 2.4v-1.8h-7.2v-3.6h1.2zm0-6.6v1.8h7.2v3.6h-1.2v-2.4h-6v1.8l-2.4-2.4 2.4-2.4z" color="#363636" fill="#363636"/>
</svg>

<?xml version="1.0" encoding="UTF-8" standalone="no"?>
<svg
   xmlns:dc="http://purl.org/dc/elements/1.1/"
   xmlns:cc="http://creativecommons.org/ns#"
   xmlns:rdf="http://www.w3.org/1999/02/22-rdf-syntax-ns#"
   xmlns:svg="http://www.w3.org/2000/svg"
   xmlns="http://www.w3.org/2000/svg"
   xmlns:sodipodi="http://sodipodi.sourceforge.net/DTD/sodipodi-0.dtd"
   xmlns:inkscape="http://www.inkscape.org/namespaces/inkscape"
   viewBox="0 0 16 16"
   id="svg3197"
   version="1.1"
   inkscape:version="0.91 r13725"
   sodipodi:docname="media-playlist-repeat-song-rtl-symbolic.svg">
  <metadata
     id="metadata3205">
    <rdf:RDF>
      <cc:Work
         rdf:about="">
        <dc:format>image/svg+xml</dc:format>
        <dc:type
           rdf:resource="http://purl.org/dc/dcmitype/StillImage" />
        <dc:title></dc:title>
      </cc:Work>
    </rdf:RDF>
  </metadata>
  <sodipodi:namedview
     pagecolor="#ffffff"
     bordercolor="#666666"
     borderopacity="1"
     objecttolerance="10"
     gridtolerance="10"
     guidetolerance="10"
     inkscape:pageopacity="0"
     inkscape:pageshadow="2"
     inkscape:window-width="640"
     inkscape:window-height="480"
     id="namedview3203"
     showgrid="false"
     inkscape:zoom="39.8125"
     inkscape:cx="-0.38932491"
     inkscape:cy="8"
     inkscape:current-layer="svg3197" />
  <defs
     id="defs3051">
    <style
       type="text/css"
       id="current-color-scheme">
      .ColorScheme-Text {
        color:#bebebe;
      }
      </style>
  </defs>
  <path
     style="color:#bebebe;fill:currentColor;fill-opacity:1;stroke:none"
     d="m 8,6.2 -1.2,0.6 0,0.6 0.9,0 0,2.4 0.9,0 0,-3.6 -0.6,0 z"
     id="path4136" />
  <path
     id="path3201"
     style="color:#bebebe;fill:currentColor;fill-opacity:1;stroke:none"
     d="m 5,8.6 0,2.4 6,0 0,-1.8 2.4,2.4 -2.4,2.4 0,-1.8 -7.2000001,0 0,-3.6 L 5,8.6 Z M 5,2 l 0,1.8000001 7.2,0 L 12.2,7.4 11,7.4 11,5 5,5 5,6.8 2.6,4.4 5,2 Z"
     inkscape:connector-curvature="0" />
</svg>
